X: 116
M: C|
L: 1/8
K: F
V: 1
f |\
cF F/F/F cFBd | cF F/F/F c2Ad | BG G/G/G BGdG | BG G/G/G c2A :|
|: G |\
V: 2 clef=bass middle=d
z |\
f2f2 f2f2 | f2f2 f2f2 | g2g2 g2g2 | g2g2 f2f :||: z | f2f2 f2f2 |
f2f2 f2f2 | g2g2 g2g2 | g2g2 g2g2 | f2f2 f2f2 | f2f2 c'3=b | c'2=b2 c'2=b2 | c'2=b2 c'3 :|

